boom-gate-up.svg

<svg fill="currentColor" viewBox="0 0 24 24"><path d="M19.9 3c-.6-1-1.8-1.3-2.7-.7L6.9 8.2C6.6 8.1 6.3 8 6 8c-1.7 0-3 1.3-3 3v9c-.6 0-1 .4-1 1v1h8v-1c0-.6-.4-1-1-1v-8.4l10.1-5.8c1-.6 1.3-1.8.8-2.8M6 12.5c-.8 0-1.5-.7-1.5-1.5S5.2 9.5 6 9.5s1.5.7 1.5 1.5-.7 1.5-1.5 1.5m4.4-2.9-2.3-1 1.3-.8 2.3 1zm3.5-2-2.3-1 1.3-.8 2.3 1zm3.4-2-2.3-1 1.3-.8 2.3 1z"/></svg>

<svg  viewBox="0 0 24 24" fill="currentColor"><path  d="M19.9 3C19.3 2 18.1 1.7 17.2 2.3L6.9 8.2C6.6 8.1 6.3 8 6 8C4.3 8 3 9.3 3 11V20C2.4 20 2 20.4 2 21V22H10V21C10 20.4 9.6 20 9 20V11.6L19.1 5.8C20.1 5.2 20.4 4 19.9 3M6 12.5C5.2 12.5 4.5 11.8 4.5 11S5.2 9.5 6 9.5 7.5 10.2 7.5 11 6.8 12.5 6 12.5M10.4 9.6L8.1 8.6L9.4 7.8L11.7 8.8L10.4 9.6M13.9 7.6L11.6 6.6L12.9 5.8L15.2 6.8L13.9 7.6M17.3 5.6L15 4.6L16.3 3.8L18.6 4.8L17.3 5.6"/></svg>
